img/header/whiteLine2.svg

<svg width="529" height="712" viewBox="0 0 529 712" fill="none" xmlns="http://www.w3.org/2000/svg">
<path d="M290.441 4.1984C480.71 -19.9666 562.493 120.028 515.351 215.649C468.209 311.269 258.824 331.479 288.092 486.351C317.373 641.236 62.8174 711.261 62.8174 711.261" stroke="white" stroke-miterlimit="10"/>
<path d="M0.879395 44.6174C0.879395 44.6174 145.923 97.1459 290.238 78.2864C434.553 59.4269 451.428 144.193 434.553 177.943C399.534 247.981 212.33 261.441 200.207 374.571C191.094 459.608 263.508 573.899 99.1999 634.5" stroke="white" stroke-miterlimit="10"/>
<path d="M65.531 101.182C65.531 101.182 213.788 82.2689 187.314 165.834C156.98 261.616 85.727 260.104 153.065 381.321C177.014 424.44 184.047 598.158 52.058 563.139" stroke="white" stroke-miterlimit="10"/>
<path d="M316.698 198.153C353.515 198.153 383.361 181.87 383.361 161.784C383.361 141.698 353.515 125.415 316.698 125.415C279.881 125.415 250.035 141.698 250.035 161.784C250.035 181.87 279.881 198.153 316.698 198.153Z" stroke="white" stroke-miterlimit="10"/>
</svg>

<svg width="529" height="712" fill="none" xmlns="http://www.w3.org/2000/svg"><path d="M290.441 4.198c190.269-24.165 272.052 115.83 224.91 211.451-47.142 95.62-256.527 115.83-227.259 270.702 29.281 154.885-225.275 224.91-225.275 224.91" stroke="#fff" stroke-miterlimit="10"/><path d="M.88 44.617s145.043 52.529 289.358 33.67c144.315-18.86 161.19 65.906 144.315 99.656-35.019 70.038-222.223 83.498-234.346 196.628C191.094 459.608 263.508 573.899 99.2 634.5" stroke="#fff" stroke-miterlimit="10"/><path d="M65.531 101.182s148.257-18.913 121.783 64.652c-30.334 95.782-101.587 94.27-34.249 215.487 23.949 43.119 30.982 216.837-101.007 181.818M316.698 198.153c36.817 0 66.663-16.283 66.663-36.369s-29.846-36.369-66.663-36.369c-36.817 0-66.663 16.283-66.663 36.369s29.846 36.369 66.663 36.369Z" stroke="#fff" stroke-miterlimit="10"/></svg>
